X: 302
T: Beyaz Giyme Söz Olur
C: (Anonim)
O: Turkey
F: http://compmusic.upf.edu/node/140
N: segah--turku--aksak--beyaz_giyme--bolu
N: makam= segah
N: form= turku
N: usul= aksak = 9/8
M: 9/8
L: 1/16
K: C _1/4B _1/4e ^f 
Q: 1/4=120
%%MIDI tuningsystem comma53
z2ga agg^3/4f f4 g2fe d2 | e2 ^3/4f2fe dcB4g2 f2eg  | 
w:  Be yaz  giy *  me  *  söz  o *  *  lur    |  Si yah  giy *  me  *  toz  o  | 
^3/4f12 f2f2 f2 | z2 gaag g^3/4ff4g2 fed2  | \
w:  lur   SAZ  |  Gel  be ra *  ber  *  ge ze *  *  lim    | 
ze2f fedc B4 g2^3/4fe d2 | 
w:  Mu ra dı *  mız  *  tez  o *  *  lur    | 
^3/4ff {g}eddc cBB4Bc d2ed  | ^3/4f{g}fed dccB B8-B2 | 
w:  Sa lı *  na  da  sa lı na  da  gel   Ha di  yav rum   |  dön  *  *  do laş   Yi ne  ba na  gel    | 
z2 gaag g^3/4ff4g2 fed2  | ze2f fedc B4 g2^3/4fe d2 | 
w:  Gel  be ra *  ber  *  ge ze *  *  lim    |  Mu ra dı *  mız  *  tez  o *  *  lur    | 
^3/4ff {g}eddc cBB4Bc d2ed  | ^3/4f{g}fed dccB B8-B2 | 
w:  Sa lı *  na  da  sa lı na  da  gel   Ha di  yav rum   |  dön  *  *  do laş   Yi ne  ba na  gel    | 
z2 gaag g^3/4ff4g2 fed2  | e2^3/4f2 fedc B4 g2f2 eg | 
w:  Be yaz  giy *  me  *  söz  o *  *  lur    |  Si yah  giy *  me  *  toz  o  | 
^3/4f12f2 f2f2  | z2ga agg^3/4f f4 g2fe d2 | \
w:  lur   SAZ  |  Gel  be ra *  ber  *  ge ze *  *  lim    | 
ze2ffe dcB4g2 ^3/4fed2  | 
w:  Mu ra dı *  mız  *  tez  o *  *  lur    | 
^3/4ff{g}ed dccB B4 Bcd2 ed | ^3/4f{g}f eddc cBB8-B2  | 
w:  Sa lı *  na  da  sa lı na  da  gel   Ha di  yav rum   |  dön  *  *  do laş   Yi ne  ba na  gel    | 
z2ga agg^3/4f f4 g2fe d2 | ze2ffe dcB4g2 ^3/4fed2  | 
w:  Gel  be ra *  ber  *  ge ze *  *  lim    |  Mu ra dı *  mız  *  tez  o *  *  lur    | 
^3/4ff{g}ed dccB B4 Bcd2 ed | ^3/4f{g}f eddc cBB8-B2  | 
w:  Sa lı *  na  da  sa lı na  da  gel   Ha di  yav rum   |  dön  *  *  do laş   Yi ne  ba na  gel    | 
|


